X: 143
T: Indian Reel
N: AKA "The Indian", "Reel des skieurs" (Qu\'ebec)
B: NEFR #143
R: reel
Z: 2012 John Chambers <jc:trillian.mit.edu>
M: C|
L: 1/8
K: G
Bc |\
"G"d2 gd B2 dB | "G"GA BG D2 B2 | "D7"A^G AB cA FA | "G"GA Bc "(D7)"d2 Bc |
"G"d2 gd B2 dB | "G"GA BG D2 B2 | "D7"A^G AB cA FA | "G"GF "(D7)"GA "G"G2 :|[K:=f]
K: C
|: "G7"((3GAB) |\
"C"c2 Gc e2 ce | g4 "G7"ga gf | "C"ed eg "F"fe dc | "G7"BG AB "C"cB AG |
"C"c2 Gc e2 ce | g4 "G7"za gf | "C"ed eg "F"fe dc | "G7"BG AB "C"c2 :|
